assets/images/icon_paiement_mode.svg

<svg height="6.632" viewBox="0 0 9.948 6.632" width="9.948" xmlns="http://www.w3.org/2000/svg"><g fill="#00ba40"><path d="m8.912 85.333h-7.876a1.038 1.038 0 0 0 -1.036 1.036v4.559a1.038 1.038 0 0 0 1.036 1.036h7.875a1.038 1.038 0 0 0 1.036-1.036v-4.559a1.038 1.038 0 0 0 -1.035-1.036zm.622 5.6a.622.622 0 0 1 -.622.622h-7.876a.622.622 0 0 1 -.622-.622v-4.564a.622.622 0 0 1 .622-.622h7.875a.622.622 0 0 1 .622.622v4.559z" transform="translate(0 -85.333)"/><path d="m9.74 149.333h-9.533a.207.207 0 0 0 -.207.207v1.243a.207.207 0 0 0 .207.207h9.534a.207.207 0 0 0 .207-.207v-1.243a.207.207 0 0 0 -.208-.207zm-.207 1.243h-9.119v-.829h9.119z" transform="translate(0 -148.09)"/><path d="m66.694 298.667h-2.487a.207.207 0 1 0 0 .414h2.487a.207.207 0 1 0 0-.414z" transform="translate(-62.757 -294.522)"/><path d="m66.694 341.333h-2.487a.207.207 0 0 0 0 .415h2.487a.207.207 0 0 0 0-.415z" transform="translate(-62.757 -336.359)"/><path d="m363.7 277.333h-.415a.622.622 0 0 0 -.622.622v.414a.622.622 0 0 0 .622.622h.415a.622.622 0 0 0 .622-.622v-.414a.622.622 0 0 0 -.622-.622zm.207 1.036a.207.207 0 0 1 -.207.207h-.415a.207.207 0 0 1 -.207-.207v-.414a.207.207 0 0 1 .207-.207h.415a.207.207 0 0 1 .207.207z" transform="translate(-355.621 -273.603)"/></g></svg>

<svg xmlns="http://www.w3.org/2000/svg" width="9.948" height="6.632" viewBox="0 0 9.948 6.632">
  <g id="credit-card" transform="translate(0 -85.333)">
    <g id="Groupe_8522" transform="translate(0 85.333)">
      <g id="Groupe_8521" transform="translate(0 0)">
        <path id="Tracé_8871" d="M8.912,85.333H1.036A1.038,1.038,0,0,0,0,86.369v4.559a1.038,1.038,0,0,0,1.036,1.036H8.911a1.038,1.038,0,0,0,1.036-1.036V86.369A1.038,1.038,0,0,0,8.912,85.333Zm.622,5.6a.622.622,0,0,1-.622.622H1.036a.622.622,0,0,1-.622-.622V86.369a.622.622,0,0,1,.622-.622H8.911a.622.622,0,0,1,.622.622v4.559Z" transform="translate(0 -85.333)" fill="#00ba40"/>
      </g>
    </g>
    <g id="Groupe_8524" transform="translate(0 86.576)">
      <g id="Groupe_8523" transform="translate(0 0)">
        <path id="Tracé_8872" d="M9.74,149.333H.207A.207.207,0,0,0,0,149.54v1.243a.207.207,0,0,0,.207.207H9.741a.207.207,0,0,0,.207-.207V149.54A.207.207,0,0,0,9.74,149.333Zm-.207,1.243H.414v-.829H9.533v.829Z" transform="translate(0 -149.333)" fill="#00ba40"/>
      </g>
    </g>
    <g id="Groupe_8526" transform="translate(1.243 89.478)">
      <g id="Groupe_8525">
        <path id="Tracé_8873" d="M66.694,298.667H64.207a.207.207,0,1,0,0,.414h2.487a.207.207,0,1,0,0-.414Z" transform="translate(-64 -298.667)" fill="#00ba40"/>
      </g>
    </g>
    <g id="Groupe_8528" transform="translate(1.243 90.307)">
      <g id="Groupe_8527">
        <path id="Tracé_8874" d="M66.694,341.333H64.207a.207.207,0,0,0,0,.415h2.487a.207.207,0,0,0,0-.415Z" transform="translate(-64 -341.333)" fill="#00ba40"/>
      </g>
    </g>
    <g id="Groupe_8530" transform="translate(7.046 89.063)">
      <g id="Groupe_8529">
        <path id="Tracé_8875" d="M363.7,277.333h-.415a.622.622,0,0,0-.622.622v.414a.622.622,0,0,0,.622.622h.415a.622.622,0,0,0,.622-.622v-.414A.622.622,0,0,0,363.7,277.333Zm.207,1.036a.207.207,0,0,1-.207.207h-.415a.207.207,0,0,1-.207-.207v-.414a.207.207,0,0,1,.207-.207h.415a.207.207,0,0,1,.207.207Z" transform="translate(-362.667 -277.333)" fill="#00ba40"/>
      </g>
    </g>
  </g>
</svg>
